X:1
T:Stabat mater dolorosa
T:Giovanni Maria Nanini
T:Giacopone da Todi, deutsch: Karl Schneider (1856)
T:Stabat mater dolorosa
T:Bearbeitung für 4 st. gem. Chor
T:CPDL - Creative Commons Attribution Non Commercial 3.0
C:Giovanni Maria Nanini
Z:Giacopone da Todi, deutsch: Karl Schneider (1856)
Z:CPDL - Creative Commons Attribution Non Commercial 3.0
%%score [ ( 1 2 ) ( 3 4 ) ] 5
L:1/8
Q:1/4=120
M:3/4
K:F
V:1 treble nm="S\nA"
V:2 treble 
V:3 bass nm="T\nB"
V:4 bass 
V:5 treble nm="Stimme"
V:1
"^Zart und innig" A4 B2 | A4 A2 | G4 G2 | A4 !breath!A2 | c4 c2 | c4 c2 | c4 =B2 | c4 !breath!c2 | %8
w: ~~1.1~Schaut die|Mut- ter|vol- ler|Schmer- zen,|wie mit|gram- er-|füll- tem|Her- zen|
w: ~~1.2~Wie im|al- ler-|tiefs- ten|Lei- de|ei- nes|Schwer- tes|schar- fe|Schei- de|
 c4 c2 | d4 d2 | c4 c2 | c6 |][M:2/2] z16 z8 z8 z16 |] %13
w: sie am|Kreuz des|Soh- nes|steht!||
w: hin durch|ih- re|See- le|geht!||
V:2
 F4 D2 | F4 F2 | F4 E2 | F4 F2 | G4 G2 | F4 F2 | D4 D2 | E4 E2 | F4 F2 | F4 F2 | F4 E2 | F6 |] %12
[M:2/2] x48 |] %13
V:3
 C4 D2 | C4 C2 | B,4 B,2 | C4 !breath!C2 | G,4 G,2 | A,4 A,2 | G,4 G,2 | G,4 !breath!G,2 | %8
w: 1.1~Sta- bat|Ma- ter|do- lo-|ro- sa|iux- ta|cru- cem|la- cri-|mo- sa,|
w: 1.2~Cu- ius|a- ni-|mam ge-|men- tem,|con- tri-|sta- tam|et do-|len- tem|
 A,4 A,2 | B,4 B,2 | G,4 G,2 | A,6 |][M:2/2] z16 z8 z8 z16 |] %13
w: dum pen-|de- bat|Fi- li-|us.||
w: per- trans-|i- vit|gla- di-|us.||
V:4
 F,4 B,,2 | F,4 F,2 | G,4 G,2 | F,4 F,2 | E,4 E,2 | F,4 F,2 | G,4 G,2 | C,4 C,2 | F,4 F,2 | %9
 B,,4 B,,2 | C,4 C,2 | [F,,F,]6 |][M:2/2] x48 |] %13
V:5
[K:C] z6 | z6 | z6 | z6 | z6 | z6 | z6 | z6 | z6 | z6 | z6 | z6 |] %12
w: ||||||||||||
w: ||||||||||||
[M:2/2] F3 A A2 G2 F2 E2 G2 !breath!F2 F2 E2 G2 F2 F3 E D2 !breath!C2 C2 D2 F2 E2 G3 F F4 |] %13
w: 2.1~~O quam tri- stis et af- flic- ta fu- it il- la be- ne- dic- ta Ma- ter u- ni- gen- i- ti.|
w: 2.2~~Quae mae- re- bat et do- le- bat et tre- me- bat, dum vi- de- bat na- ti poe- nas in- cly- ti.|

